svgs/sharp-regular/credit-card.svg

<svg xmlns="http://www.w3.org/2000/svg" viewBox="0 0 576 512"><!--! Font Awesome Pro 6.6.0 by @fontawesome - https://fontawesome.com License - https://fontawesome.com/license (Commercial License) Copyright 2024 Fonticons, Inc. --><path d="M528 80l0 48L48 128l0-48 480 0zm0 144l0 208L48 432l0-208 480 0zM48 32L0 32 0 80 0 432l0 48 48 0 480 0 48 0 0-48 0-352 0-48-48 0L48 32zM192 336l-96 0 0 48 96 0 0-48zm192 0l-160 0 0 48 160 0 0-48z"/></svg>

<svg xmlns="http://www.w3.org/2000/svg" viewBox="0 0 576 512"><!--! Font Awesome Pro 6.5.2 by @fontawesome - https://fontawesome.com License - https://fontawesome.com/license (Commercial License) Copyright 2024 Fonticons, Inc. --><path d="M528 80v48H48V80H528zm0 144V432H48V224H528zM48 32H0V80 432v48H48 528h48V432 80 32H528 48zM192 336H96v48h96V336zm192 0H224v48H384V336z"/></svg>
